X: 13817
T: Four Leafed Shamrock, The
R: reel
M: 4/4
K: Dmajor
|:ze|fd~d2 edBc|dfec dBAF|DEFB ABdf|e2df edBd|
fd~d2 edBc|dfec dBAF|DEFB ABdf|edef d2:|
|:dB|Addc defa|bfaf efdB|BAFB ABdf|eB~B2 egfe|
dBAB defa|bfaf edBA|DEFB ABdf|edef d2:|

